images/free-shipping.svg

<svg width="72" height="50" viewBox="0 0 72 50" fill="none" xmlns="http://www.w3.org/2000/svg">
<path fill-rule="evenodd" clip-rule="evenodd" d="M4.84615 0H9V4.16667H4.84615V0ZM0 19.4444H4.15385V23.6111H0V19.4444ZM16.4335 4.22917H13.1274V0H48.4615V35.3969C46.2975 37.2612 44.8997 39.9956 44.8101 43.0556H27.05C26.8847 37.409 22.263 32.8656 16.6017 32.8656C10.9403 32.8656 6.31864 37.4088 6.15331 43.0556H0V29.1199H11.7695C13.2731 29.1199 14.4964 27.8915 14.4964 26.3814C14.4964 24.8712 13.2731 23.6425 11.7695 23.6425H8.34462V19.4135H26.2659C27.7695 19.4135 28.9928 18.1848 28.9928 16.6746C28.9928 15.1644 27.7695 13.9358 26.2659 13.9358H0V9.70674H16.6017C18.1053 9.70674 19.3284 8.47821 19.3284 6.96802C19.3284 5.50901 17.9756 4.22917 16.4335 4.22917ZM49.1538 43.75C49.1538 40.3038 51.949 37.5 55.3846 37.5C58.8202 37.5 61.6154 40.3038 61.6154 43.75C61.6154 47.1962 58.8202 50 55.3846 50C51.949 50 49.1538 47.1962 49.1538 43.75ZM53.2844 45.8567H57.4849V41.6433H53.2844V45.8567ZM52.6154 4.86111H61.0622L70.6154 19.4444H52.6154V4.86111ZM52.6154 23.6111V33.1754C53.4514 32.9628 54.3266 32.8493 55.2283 32.8493C60.9476 32.8493 65.6166 37.3999 65.7837 43.0556H72V23.6111H52.6154ZM16.6154 37.5C13.1798 37.5 10.3846 40.3038 10.3846 43.75C10.3846 47.1962 13.1798 50 16.6154 50C20.051 50 22.8462 47.1962 22.8462 43.75C22.8462 40.3038 20.051 37.5 16.6154 37.5ZM18.7156 45.8567H14.5151V41.6433H18.7156V45.8567Z" fill="#FDD6BA"/>
</svg>

<svg width="72" height="50" fill="none" xmlns="http://www.w3.org/2000/svg"><path fill-rule="evenodd" clip-rule="evenodd" d="M4.846 0H9v4.167H4.846V0ZM0 19.444h4.154v4.167H0v-4.167ZM16.433 4.23h-3.306V0h35.334v35.397a10.498 10.498 0 0 0-3.65 7.659H27.05c-.165-5.647-4.787-10.19-10.448-10.19-5.662 0-10.283 4.543-10.449 10.19H0V29.12h11.77a2.736 2.736 0 0 0 2.726-2.739 2.736 2.736 0 0 0-2.726-2.739H8.345v-4.229h17.92a2.736 2.736 0 0 0 2.728-2.738 2.736 2.736 0 0 0-2.727-2.74H0V9.708h16.602a2.736 2.736 0 0 0 2.726-2.739c0-1.459-1.352-2.739-2.895-2.739Zm32.72 39.521c0-3.446 2.796-6.25 6.232-6.25 3.435 0 6.23 2.804 6.23 6.25S58.82 50 55.385 50c-3.436 0-6.231-2.804-6.231-6.25Zm4.131 2.107h4.2v-4.214h-4.2v4.214ZM52.615 4.86h8.447l9.553 14.583h-18V4.861Zm0 18.75v9.564a10.588 10.588 0 0 1 2.613-.326c5.72 0 10.389 4.55 10.556 10.207H72V23.61H52.615Zm-36 13.889c-3.435 0-6.23 2.804-6.23 6.25S13.18 50 16.615 50c3.436 0 6.231-2.804 6.231-6.25s-2.795-6.25-6.23-6.25Zm2.1 8.357h-4.2v-4.214h4.2v4.214Z" fill="#FDD6BA"/></svg>
